Newaita-dark/apps/48/meld.svg

<svg height="48pt" viewBox="0 0 48 48" width="48pt" xmlns="http://www.w3.org/2000/svg" xmlns:xlink="http://www.w3.org/1999/xlink"><linearGradient id="a" gradientUnits="userSpaceOnUse" x1="23.81478" x2="23.81478" y1="42.0509045" y2="44.03547050005"><stop offset="0" stop-opacity=".27451"/><stop offset="1" stop-opacity="0"/></linearGradient><linearGradient id="b"><stop offset="0" stop-opacity=".313725"/><stop offset=".222222" stop-opacity=".27451"/><stop offset="1" stop-opacity="0"/></linearGradient><radialGradient id="c" cx="450.908936" cy="189.579361" gradientTransform="matrix(.00000026 -.117199 -.210958 -.00000015 78.195972 95.392999)" gradientUnits="userSpaceOnUse" r="21.166656" xlink:href="#b"/><radialGradient id="d" cx="450.908936" cy="189.579361" gradientTransform="matrix(-.00000026 .117199 .210958 .00000015 -30.56642 -11.291218)" gradientUnits="userSpaceOnUse" r="21.166656" xlink:href="#b"/><radialGradient id="e" cx="450.908936" cy="189.579361" gradientTransform="matrix(-.00000026 -.117199 .210958 -.00000015 -30.56642 95.392999)" gradientUnits="userSpaceOnUse" r="21.166656" xlink:href="#b"/><radialGradient id="f" cx="450.908936" cy="189.579361" gradientTransform="matrix(.00000026 .117199 -.210958 .00000015 78.195969 -11.291219)" gradientUnits="userSpaceOnUse" r="21.166656" xlink:href="#b"/><linearGradient id="g" gradientUnits="userSpaceOnUse" x1="23.814786" x2="23.814786" y1="42.0509015" y2="4.34415649995"><stop offset="0" stop-color="#42a5f5"/><stop offset="1" stop-color="#64b5f6"/></linearGradient><linearGradient id="h" gradientUnits="userSpaceOnUse" x1="254" x2="254" y1="201.75" y2="-136.916672"><stop offset="0" stop-color="#ffb74d"/><stop offset="1" stop-color="#ffa726"/></linearGradient><path d="m8.929688 42.050781h29.769531v1.984375h-29.769531zm0 0" fill="url(#a)"/><path d="m38.699219 42.050781h3.96875v-1.984375h-3.96875zm0 0" fill="url(#c)"/><path d="m8.929688 42.050781h-3.96875v1.984375h3.96875zm0 0" fill="url(#d)"/><path d="m8.929688 42.050781h-3.96875v-1.984375h3.96875zm0 0" fill="url(#e)"/><path d="m38.699219 42.050781h3.96875v1.984375h-3.96875zm0 0" fill="url(#f)"/><path d="m8.929688 4.34375h29.769531c2.191406 0 3.96875 1.777344 3.96875 3.96875v29.769531c0 2.191407-1.777344 3.96875-3.96875 3.96875h-29.769531c-2.191407 0-3.96875-1.777343-3.96875-3.96875v-29.769531c0-2.191406 1.777343-3.96875 3.96875-3.96875zm0 0" fill="url(#g)"/><path d="m8.929688 4.34375c-2.199219 0-3.96875 1.769531-3.96875 3.96875v.496094c0-2.199219 1.769531-3.96875 3.96875-3.96875h29.769531c2.199219 0 3.96875 1.769531 3.96875 3.96875v-.496094c0-2.199219-1.769531-3.96875-3.96875-3.96875zm0 0" fill="#fff" fill-opacity=".392157"/><path d="m8.929688 42.050781c-2.199219 0-3.96875-1.769531-3.96875-3.96875v-.496093c0 2.199218 1.769531 3.96875 3.96875 3.96875h29.769531c2.199219 0 3.96875-1.769532 3.96875-3.96875v.496093c0 2.199219-1.769531 3.96875-3.96875 3.96875zm0 0" fill-opacity=".235294"/><path d="m8.929688 4.203125c-2.273438 0-4.109376 1.835937-4.109376 4.109375v29.769531c0 2.273438 1.835938 4.109375 4.109376 4.109375h29.769531c2.273437 0 4.109375-1.835937 4.109375-4.109375v-29.769531c0-2.273438-1.835938-4.109375-4.109375-4.109375zm0 .28125h29.769531c2.125 0 3.828125 1.707031 3.828125 3.828125v29.769531c0 2.125-1.703125 3.828125-3.828125 3.828125h-29.769531c-2.121094 0-3.828126-1.703125-3.828126-3.828125v-29.769531c0-2.121094 1.707032-3.828125 3.828126-3.828125zm0 0" fill="#212121"/><path d="m102.031923-136.924123c-8.665839 0-17.331678 8.707502-17.331678 17.373341v213.021325l23.289443 16.831726c45.662306 31.038702 80.367325 43.079219 120.321843 40.704446 59.077691-3.499666 106.739807-45.495656 106.781469-98.240619.041663-38.954613-27.539037-74.367898-57.702823-74.367898-26.247493 0-48.870333 14.87358-47.162163 34.746682.916579 10.957287 7.832586 13.915338 18.414908 7.874248 11.040613-6.291066 20.123079-6.082752 30.080461 2.999714 6.999332 6.374391 8.957478 10.998949 8.957478 21.956236 0 28.913906-22.122887 51.203444-54.203157 51.036793-46.287246-.249976-81.242242-43.787485-81.033928-96.615774.16665-41.829338 14.706929-73.284668 54.203157-112.364269 11.582227-11.45724 18.039944-22.914479 16.790063-24.955951-4.582896 0-96.782424 0-121.405073 0zm191.898341 50.495178c-4.874534-.16665-9.665743-.041662-14.665266.249977-59.036029 3.499665-106.739807 45.495655-106.781469 98.240618 0 38.954613 27.580699 74.367898 57.744485 74.367898 26.247494 0 48.870333-14.831917 47.162163-34.746682-.958242-10.957287-7.832585-13.915337-18.456571-7.874248-10.998949 6.291066-20.081415 6.082753-30.08046-2.999713-6.957669-6.332729-8.915816-10.99895-8.915816-21.956237 0-28.913905 22.122888-51.161781 54.203158-51.036793 46.287246.249976 81.242241 43.787485 81.033928 96.615774-.166651 41.829339-14.706929 73.284668-54.203157 112.36427-11.582228 11.457239-18.081607 22.914478-16.831726 24.95595h121.446735c8.66584 0 17.331679-8.665839 17.331679-17.373341 0-73.201343 0-139.48668 0-213.021324l-23.331106-16.831726c-39.912855-27.164073-71.61816-39.787867-105.656577-40.996085zm0 0" fill="url(#h)" stroke="#212121" stroke-width="3" transform="matrix(.093759 0 0 .093759 0 20.158175)"/></svg>

<?xml version="1.0" encoding="UTF-8"?>
<svg xmlns="http://www.w3.org/2000/svg" xmlns:xlink="http://www.w3.org/1999/xlink" width="48pt" height="48pt" viewBox="0 0 48 48" version="1.1">
<defs>
<linearGradient id="linear0" gradientUnits="userSpaceOnUse" x1="254" y1="233.5" x2="254" y2="254.666672" gradientTransform="matrix(0.093759,0,0,0.093759,-0.00000572259,20.158178)">
<stop offset="0" style="stop-color:rgb(0%,0%,0%);stop-opacity:0.27451;"/>
<stop offset="1" style="stop-color:rgb(0%,0%,0%);stop-opacity:0;"/>
</linearGradient>
<radialGradient id="radial0" gradientUnits="userSpaceOnUse" cx="450.908936" cy="189.579361" fx="450.908936" fy="189.579361" r="21.166656" gradientTransform="matrix(0.000000261256,-0.117199,-0.210958,-0.000000152308,78.195972,95.392999)">
<stop offset="0" style="stop-color:rgb(0%,0%,0%);stop-opacity:0.313725;"/>
<stop offset="0.222222" style="stop-color:rgb(0%,0%,0%);stop-opacity:0.27451;"/>
<stop offset="1" style="stop-color:rgb(0%,0%,0%);stop-opacity:0;"/>
</radialGradient>
<radialGradient id="radial1" gradientUnits="userSpaceOnUse" cx="450.908936" cy="189.579361" fx="450.908936" fy="189.579361" r="21.166656" gradientTransform="matrix(-0.000000261256,0.117199,0.210958,0.000000152308,-30.56642,-11.291218)">
<stop offset="0" style="stop-color:rgb(0%,0%,0%);stop-opacity:0.313725;"/>
<stop offset="0.222222" style="stop-color:rgb(0%,0%,0%);stop-opacity:0.27451;"/>
<stop offset="1" style="stop-color:rgb(0%,0%,0%);stop-opacity:0;"/>
</radialGradient>
<radialGradient id="radial2" gradientUnits="userSpaceOnUse" cx="450.908936" cy="189.579361" fx="450.908936" fy="189.579361" r="21.166656" gradientTransform="matrix(-0.000000261256,-0.117199,0.210958,-0.000000152308,-30.56642,95.392999)">
<stop offset="0" style="stop-color:rgb(0%,0%,0%);stop-opacity:0.313725;"/>
<stop offset="0.222222" style="stop-color:rgb(0%,0%,0%);stop-opacity:0.27451;"/>
<stop offset="1" style="stop-color:rgb(0%,0%,0%);stop-opacity:0;"/>
</radialGradient>
<radialGradient id="radial3" gradientUnits="userSpaceOnUse" cx="450.908936" cy="189.579361" fx="450.908936" fy="189.579361" r="21.166656" gradientTransform="matrix(0.000000261256,0.117199,-0.210958,0.000000152308,78.195969,-11.291219)">
<stop offset="0" style="stop-color:rgb(0%,0%,0%);stop-opacity:0.313725;"/>
<stop offset="0.222222" style="stop-color:rgb(0%,0%,0%);stop-opacity:0.27451;"/>
<stop offset="1" style="stop-color:rgb(0%,0%,0%);stop-opacity:0;"/>
</radialGradient>
<linearGradient id="linear1" gradientUnits="userSpaceOnUse" x1="254" y1="233.5" x2="254" y2="-168.666672" gradientTransform="matrix(0.093759,0,0,0.093759,0,20.158175)">
<stop offset="0" style="stop-color:rgb(25.882353%,64.705882%,96.078431%);stop-opacity:1;"/>
<stop offset="1" style="stop-color:rgb(39.215686%,70.980392%,96.470588%);stop-opacity:1;"/>
</linearGradient>
<linearGradient id="linear2" gradientUnits="userSpaceOnUse" x1="254" y1="201.75" x2="254" y2="-136.916672" gradientTransform="matrix(1,0,0,1,0,0)">
<stop offset="0" style="stop-color:rgb(100%,71.764706%,30.196078%);stop-opacity:1;"/>
<stop offset="1" style="stop-color:rgb(100%,65.490196%,14.901961%);stop-opacity:1;"/>
</linearGradient>
</defs>
<g id="surface1">
<path style=" stroke:none;fill-rule:nonzero;fill:url(#linear0);" d="M 8.929688 42.050781 L 38.699219 42.050781 L 38.699219 44.035156 L 8.929688 44.035156 Z M 8.929688 42.050781 "/>
<path style=" stroke:none;fill-rule:nonzero;fill:url(#radial0);" d="M 38.699219 42.050781 L 42.667969 42.050781 L 42.667969 40.066406 L 38.699219 40.066406 Z M 38.699219 42.050781 "/>
<path style=" stroke:none;fill-rule:nonzero;fill:url(#radial1);" d="M 8.929688 42.050781 L 4.960938 42.050781 L 4.960938 44.035156 L 8.929688 44.035156 Z M 8.929688 42.050781 "/>
<path style=" stroke:none;fill-rule:nonzero;fill:url(#radial2);" d="M 8.929688 42.050781 L 4.960938 42.050781 L 4.960938 40.066406 L 8.929688 40.066406 Z M 8.929688 42.050781 "/>
<path style=" stroke:none;fill-rule:nonzero;fill:url(#radial3);" d="M 38.699219 42.050781 L 42.667969 42.050781 L 42.667969 44.035156 L 38.699219 44.035156 Z M 38.699219 42.050781 "/>
<path style=" stroke:none;fill-rule:nonzero;fill:url(#linear1);" d="M 8.929688 4.34375 L 38.699219 4.34375 C 40.890625 4.34375 42.667969 6.121094 42.667969 8.3125 L 42.667969 38.082031 C 42.667969 40.273438 40.890625 42.050781 38.699219 42.050781 L 8.929688 42.050781 C 6.738281 42.050781 4.960938 40.273438 4.960938 38.082031 L 4.960938 8.3125 C 4.960938 6.121094 6.738281 4.34375 8.929688 4.34375 Z M 8.929688 4.34375 "/>
<path style=" stroke:none;fill-rule:nonzero;fill:rgb(100%,100%,100%);fill-opacity:0.392157;" d="M 8.929688 4.34375 C 6.730469 4.34375 4.960938 6.113281 4.960938 8.3125 L 4.960938 8.808594 C 4.960938 6.609375 6.730469 4.839844 8.929688 4.839844 L 38.699219 4.839844 C 40.898438 4.839844 42.667969 6.609375 42.667969 8.808594 L 42.667969 8.3125 C 42.667969 6.113281 40.898438 4.34375 38.699219 4.34375 Z M 8.929688 4.34375 "/>
<path style=" stroke:none;fill-rule:nonzero;fill:rgb(0%,0%,0%);fill-opacity:0.235294;" d="M 8.929688 42.050781 C 6.730469 42.050781 4.960938 40.28125 4.960938 38.082031 L 4.960938 37.585938 C 4.960938 39.785156 6.730469 41.554688 8.929688 41.554688 L 38.699219 41.554688 C 40.898438 41.554688 42.667969 39.785156 42.667969 37.585938 L 42.667969 38.082031 C 42.667969 40.28125 40.898438 42.050781 38.699219 42.050781 Z M 8.929688 42.050781 "/>
<path style=" stroke:none;fill-rule:nonzero;fill:rgb(12.941177%,12.941177%,12.941177%);fill-opacity:1;" d="M 8.929688 4.203125 C 6.65625 4.203125 4.820312 6.039062 4.820312 8.3125 L 4.820312 38.082031 C 4.820312 40.355469 6.65625 42.191406 8.929688 42.191406 L 38.699219 42.191406 C 40.972656 42.191406 42.808594 40.355469 42.808594 38.082031 L 42.808594 8.3125 C 42.808594 6.039062 40.972656 4.203125 38.699219 4.203125 Z M 8.929688 4.484375 L 38.699219 4.484375 C 40.824219 4.484375 42.527344 6.191406 42.527344 8.3125 L 42.527344 38.082031 C 42.527344 40.207031 40.824219 41.910156 38.699219 41.910156 L 8.929688 41.910156 C 6.808594 41.910156 5.101562 40.207031 5.101562 38.082031 L 5.101562 8.3125 C 5.101562 6.191406 6.808594 4.484375 8.929688 4.484375 Z M 8.929688 4.484375 "/>
<path style="fill-rule:nonzero;fill:url(#linear2);stroke-width:3;stroke-linecap:butt;stroke-linejoin:miter;stroke:rgb(12.941177%,12.941177%,12.941177%);stroke-opacity:1;stroke-miterlimit:4;" d="M 102.031923 -136.924123 C 93.366084 -136.924123 84.700245 -128.216621 84.700245 -119.550782 C 84.700245 -46.349439 84.700245 19.935898 84.700245 93.470543 L 107.989688 110.302269 C 153.651994 141.340971 188.357013 153.381488 228.311531 151.006715 C 287.389222 147.507049 335.051338 105.511059 335.093 52.766096 C 335.134663 13.811483 307.553963 -21.601802 277.390177 -21.601802 C 251.142684 -21.601802 228.519844 -6.728222 230.228014 13.14488 C 231.144593 24.102167 238.0606 27.060218 248.642922 21.019128 C 259.683535 14.728062 268.766001 14.936376 278.723383 24.018842 C 285.722715 30.393233 287.680861 35.017791 287.680861 45.975078 C 287.680861 74.888984 265.557974 97.178522 233.477704 97.011871 C 187.190458 96.761895 152.235462 53.224386 152.443776 0.396097 C 152.610426 -41.433241 167.150705 -72.888571 206.646933 -111.968172 C 218.22916 -123.425412 224.686877 -134.882651 223.436996 -136.924123 C 218.8541 -136.924123 126.654572 -136.924123 102.031923 -136.924123 Z M 293.930264 -86.428945 C 289.05573 -86.595595 284.264521 -86.470607 279.264998 -86.178968 C 220.228969 -82.679303 172.525191 -40.683313 172.483529 12.06165 C 172.483529 51.016263 200.064228 86.429548 230.228014 86.429548 C 256.475508 86.429548 279.098347 71.597631 277.390177 51.682866 C 276.431935 40.725579 269.557592 37.767529 258.933606 43.808618 C 247.934657 50.099684 238.852191 49.891371 228.853146 40.808905 C 221.895477 34.476176 219.93733 29.809955 219.93733 18.852668 C 219.93733 -10.061237 242.060218 -32.309113 274.140488 -32.184125 C 320.427734 -31.934149 355.382729 11.60336 355.174416 64.431649 C 355.007765 106.260988 340.467487 137.716317 300.971259 176.795919 C 289.389031 188.253158 282.889652 199.710397 284.139533 201.751869 C 288.014163 201.751869 380.838632 201.751869 405.586268 201.751869 C 414.252108 201.751869 422.917947 193.08603 422.917947 184.378528 C 422.917947 111.177185 422.917947 44.891848 422.917947 -28.642796 L 399.586841 -45.474522 C 359.673986 -72.638595 327.968681 -85.262389 293.930264 -86.470607 Z M 293.930264 -86.428945 " transform="matrix(0.093759,0,0,0.093759,0,20.158175)"/>
</g>
</svg>
